X:38
T: Graf und Nonne (Die Nonne)
N: Q0155k
O: Osteuropa, UdSSR, Bessarabien, Karolinengrund, Eigenheim
R: Ballade, Standesunterschied, Werbung, Liebe
M: 6/8
L: 1/16
K: Eb
B,2 | E4G2B4E2 | E2D4z4
B,2 | D4F2B4A2 | G6z4
EF | G4G2A4B2 | c4e2d4
c2 | B2B2B2B4A2 | G6z4

@@@ Tune index: 1748
